X:0074
T:Duncan's Dance.
N:no repeat marks
M:6/8
L:1/8
Q:3/8=120
I: || ||
% D E ^F G A B c d e ^f g a
Z:Jack Campin * www.campin.me.uk * 2009
K:G
Bcd g3 |Bcd g3 |Bcd efg|aAA A2z|
Bcd g3 |Bcd g3 |dcB ABc|BGG G3||
BAB GEE|GEE E3 |BAB GEE|FDD D3 |
BAB GEE|FAG FED|g3  dAc|BGG G3|]
<end>
<start>
